src/assets/outline/Crown.svg

<svg width="24" height="24" viewBox="0 0 24 24"  xmlns="http://www.w3.org/2000/svg">
<path d="M17 21.0396H7C3.83 21.0396 1.25 18.4596 1.25 15.2896V5.70961C1.25 4.40961 1.85 3.95961 2.21 3.80961C2.57 3.65961 3.31 3.54961 4.23 4.46961L6.82 7.05961C6.92 7.15961 7.08 7.15961 7.17 7.05961L10.76 3.46961C11.42 2.80961 12.58 2.80961 13.23 3.46961L16.82 7.05961C16.92 7.15961 17.08 7.15961 17.17 7.05961L19.76 4.46961C20.68 3.54961 21.42 3.66961 21.78 3.80961C22.14 3.95961 22.74 4.39961 22.74 5.70961V15.2996C22.75 18.7296 20.44 21.0396 17 21.0396ZM2.81 5.23961C2.78 5.31961 2.75 5.46961 2.75 5.70961V15.2996C2.75 17.6396 4.66 19.5496 7 19.5496H17C19.58 19.5496 21.25 17.8796 21.25 15.2996V5.70961C21.25 5.46961 21.22 5.32961 21.19 5.24961C21.11 5.28961 20.99 5.36961 20.82 5.53961L18.23 8.12961C17.57 8.78961 16.41 8.78961 15.76 8.12961L12.17 4.53961C12.07 4.43961 11.91 4.43961 11.82 4.53961L8.24 8.11961C7.58 8.77961 6.42 8.77961 5.77 8.11961L3.18 5.52961C3.01 5.35961 2.88 5.27961 2.81 5.23961Z" />
</svg>

<?xml version="1.0" encoding="UTF-8"?>
<svg width="24" height="24" viewBox="0 0 24 24" xmlns="http://www.w3.org/2000/svg">
 <path d="m17 21.04h-10c-3.17 0-5.75-2.58-5.75-5.75v-9.58c0-1.3 0.6-1.75 0.96-1.9s1.1-0.26 2.02 0.66l2.59 2.59c0.1 0.1 0.26 0.1 0.35 0l3.59-3.59c0.66-0.66 1.82-0.66 2.47 0l3.59 3.59c0.1 0.1 0.26 0.1 0.35 0l2.59-2.59c0.92-0.92 1.66-0.8 2.02-0.66 0.36 0.15 0.96 0.59 0.96 1.9v9.59c0.01 3.43-2.3 5.74-5.74 5.74zm-14.19-15.8c-0.03 0.08-0.06 0.23-0.06 0.47v9.59c0 2.34 1.91 4.25 4.25 4.25h10c2.58 0 4.25-1.67 4.25-4.25v-9.59c0-0.24-0.03-0.38-0.06-0.46-0.08 0.04-0.2 0.12-0.37 0.29l-2.59 2.59c-0.66 0.66-1.82 0.66-2.47 0l-3.59-3.59c-0.1-0.1-0.26-0.1-0.35 0l-3.58 3.58c-0.66 0.66-1.82 0.66-2.47 0l-2.59-2.59c-0.17-0.17-0.3-0.25-0.37-0.29z"/>
</svg>
